images/button-images/sc2_X.svg

<?xml version='1.0' encoding='utf-8'?>
<svg xmlns="http://www.w3.org/2000/svg" viewBox="0 0 45.3114 45.6102" width="45.3114" height="45.6102"><g id="glyph"><g id="button"><g transform="scale(0.5) translate(-1032.09,-224.65)"><path d="M 1076.5924 224.6808 C 1058.6789 224.7110 1044.0434 234.0701 1035.7877 250.7745 C 1032.1444 258.1467 1032.0924 258.4259 1032.0924 270.3058 C 1032.0924 281.3571 1032.3203 282.8441 1034.8366 288.2159 C 1040.9430 301.2515 1049.3853 309.0293 1062.3639 313.5773 C 1068.0315 315.5634 1070.5113 315.8703 1078.0924 315.5226 C 1098.1578 314.6024 1113.1175 303.1957 1119.6237 283.8565 C 1122.7152 274.6671 1122.1015 260.8365 1118.2291 252.3780 C 1110.2315 234.9090 1094.8109 224.6498 1076.5924 224.6808 Z M 1076.6002 230.3565 C 1086.4594 230.3565 1087.5616 230.5659 1093.7037 233.5909 C 1101.7190 237.5383 1109.6374 245.5862 1113.3951 253.6046 C 1115.7865 258.7076 1116.0924 260.5423 1116.0924 269.8565 C 1116.0924 279.5269 1115.8463 280.8753 1112.9889 286.9053 C 1107.7228 298.0182 1099.9577 305.1192 1088.9186 308.9172 C 1078.4073 312.5336 1064.9339 310.9389 1055.2096 304.9289 C 1049.9230 301.6616 1042.6863 293.2931 1039.7721 287.0753 C 1037.3733 281.9574 1037.0924 280.2012 1037.0924 270.3370 C 1037.0924 259.8917 1037.2646 258.9653 1040.3893 252.6183 C 1044.5789 244.1079 1050.8471 237.8399 1059.3580 233.6534 C 1065.6533 230.5567 1066.7010 230.3565 1076.6002 230.3565 Z M 1089.8209 247.8565 C 1086.2291 247.8565 1085.8472 248.1901 1081.7057 254.9015 C 1079.3149 258.7759 1076.9549 261.8120 1076.4616 261.6476 C 1075.9682 261.4831 1073.6542 258.4250 1071.3209 254.8526 C 1067.4834 248.9769 1066.7213 248.3267 1063.3346 248.0460 C 1061.0928 247.8601 1059.5924 248.1772 1059.5924 248.8351 C 1059.5924 249.4394 1062.2924 253.9487 1065.5924 258.8565 C 1068.8924 263.7643 1071.5924 268.2511 1071.5924 268.8272 C 1071.5924 269.7353 1062.0565 285.1074 1059.3229 288.6065 L 1059.3229 288.6165 C 1058.5762 289.5724 1059.3229 289.8665 1062.4830 289.8665 C 1066.5464 289.8665 1066.7030 289.7328 1071.5182 282.1848 L 1076.4205 274.5012 L 1081.2565 282.1790 C 1086.0552 289.7973 1086.1239 289.8506 1090.3717 289.8606 L 1094.6530 289.8606 L 1090.9772 284.1106 C 1088.9558 280.9481 1085.8319 276.1756 1084.0338 273.5032 L 1080.7643 268.6438 L 1087.1784 258.7278 C 1090.7061 253.2742 1093.5924 248.5988 1093.5924 248.3372 C 1093.5924 248.0756 1091.8943 247.8607 1089.8209 247.8607 Z" style="fill:#000000" /></g></g></g></svg>

<svg xmlns="http://www.w3.org/2000/svg" width="45.311" height="45.61" viewBox="0 0 45.311 45.61"><g id="glyph"><g id="button"><g transform="scale(0.5) translate(-1032.09,-224.65)"><path d="M1076.592 224.68c-17.913.031-32.549 9.39-40.804 26.094-3.644 7.373-3.696 7.652-3.696 19.532 0 11.051.228 12.538 2.745 17.91 6.106 13.036 14.548 20.813 27.527 25.361 5.668 1.986 8.147 2.293 15.728 1.946 20.066-.92 35.025-12.327 41.532-31.667 3.091-9.189 2.477-23.02-1.395-31.478-7.997-17.469-23.418-27.728-41.637-27.697m.008 5.677c9.86 0 10.962.209 17.104 3.234 8.015 3.947 15.933 11.995 19.691 20.014 2.391 5.103 2.697 6.937 2.697 16.251 0 9.67-.246 11.02-3.103 17.05-5.266 11.112-13.031 18.213-24.07 22.011-10.512 3.617-23.985 2.022-33.71-3.988-5.286-3.267-12.523-11.636-15.437-17.854-2.399-5.118-2.68-6.874-2.68-16.738 0-10.445.173-11.372 3.297-17.719 4.19-8.51 10.458-14.778 18.969-18.965 6.295-3.096 7.343-3.296 17.242-3.296m13.22 17.5c-3.59 0-3.973.333-8.114 7.044-2.391 3.875-4.751 6.911-5.244 6.747-.494-.165-2.808-3.223-5.141-6.795-3.838-5.876-4.6-6.526-7.986-6.807-2.242-.186-3.743.131-3.743.79 0 .603 2.7 5.113 6 10.02 3.3 4.908 6 9.395 6 9.971 0 .908-9.536 16.28-12.27 19.78v.01c-.746.955 0 1.25 3.161 1.25 4.063 0 4.22-.134 9.035-7.682l4.902-7.684 4.836 7.678c4.8 7.618 4.868 7.672 9.116 7.682h4.281l-3.676-5.75a656 656 0 0 0-6.943-10.608l-3.27-4.86 6.414-9.915c3.528-5.454 6.414-10.13 6.414-10.39 0-.262-1.698-.477-3.771-.477Z" style="fill:#000"/></g></g></g></svg>
